svgs/sharp-solid/poll-people.svg

<svg xmlns="http://www.w3.org/2000/svg" viewBox="0 0 640 512"><!--! Font Awesome Pro 6.6.0 by @fontawesome - https://fontawesome.com License - https://fontawesome.com/license (Commercial License) Copyright 2024 Fonticons, Inc. --><path d="M128 48A48 48 0 1 0 32 48a48 48 0 1 0 96 0zM576 96l0 32-96 0 0-32 96 0zM288 32l-64 0 0 64 0 32 0 64 64 0 288 0 64 0 0-64 0-32 0-64-64 0L288 32zM576 384l0 32-224 0 0-32 224 0zM288 320l-64 0 0 64 0 32 0 64 64 0 288 0 64 0 0-64 0-32 0-64-64 0-288 0zM160 224l-32-96-96 0L0 224l160 0zM128 336a48 48 0 1 0 -96 0 48 48 0 1 0 96 0zm32 176l-32-96-96 0L0 512l160 0z"/></svg>

<svg xmlns="http://www.w3.org/2000/svg" viewBox="0 0 640 512"><!--! Font Awesome Pro 6.4.0 by @fontawesome - https://fontawesome.com License - https://fontawesome.com/license (Commercial License) Copyright 2023 Fonticons, Inc. --><path d="M128 48A48 48 0 1 0 32 48a48 48 0 1 0 96 0zM576 96v32H480V96h96zM288 32H224V96v32 64h64H576h64V128 96 32H576 288zM576 384v32H352V384H576zM288 320H224v64 32 64h64H576h64V416 384 320H576 288zM160 224l-32-96H32L0 224H160zM128 336a48 48 0 1 0 -96 0 48 48 0 1 0 96 0zm32 176l-32-96H32L0 512H160z"/></svg>
